src/cmd/lc_outlinebullet.svg

<svg viewBox="0 0 24 24" xmlns="http://www.w3.org/2000/svg"><path d="m4 4v16h16v-16zm1 1h14v14h-14zm2 1c-.5522847 0-1 .4477-1 1s.4477153 1 1 1 1-.4477 1-1-.4477153-1-1-1zm2 0v1h9v-1zm0 2v1h6v-1zm-2 2c-.5522847 0-1 .4477-1 1s.4477153 1 1 1 1-.4477 1-1-.4477153-1-1-1zm2 0v1h9v-1zm0 2v1h2v-1zm-2 2c-.5522847 0-1 .4477-1 1s.4477153 1 1 1 1-.4477 1-1-.4477153-1-1-1zm2 0v1h9v-1zm0 2v1h6v-1zm7 1v1h2v-1z" fill="#232629"/></svg>

<?xml version="1.0" encoding="UTF-8" standalone="no"?>
<svg
   xmlns:dc="http://purl.org/dc/elements/1.1/"
   xmlns:cc="http://creativecommons.org/ns#"
   xmlns:rdf="http://www.w3.org/1999/02/22-rdf-syntax-ns#"
   xmlns:svg="http://www.w3.org/2000/svg"
   xmlns="http://www.w3.org/2000/svg"
   xmlns:sodipodi="http://sodipodi.sourceforge.net/DTD/sodipodi-0.dtd"
   xmlns:inkscape="http://www.inkscape.org/namespaces/inkscape"
   viewBox="0 0 24 24"
   version="1.1"
   id="svg4"
   sodipodi:docname="lc_outlinebullet.svg"
   inkscape:version="0.92.4 (5da689c313, 2019-01-14)">
  <metadata
     id="metadata10">
    <rdf:RDF>
      <cc:Work
         rdf:about="">
        <dc:format>image/svg+xml</dc:format>
        <dc:type
           rdf:resource="http://purl.org/dc/dcmitype/StillImage" />
      </cc:Work>
    </rdf:RDF>
  </metadata>
  <defs
     id="defs8" />
  <sodipodi:namedview
     pagecolor="#ffffff"
     bordercolor="#666666"
     borderopacity="1"
     objecttolerance="10"
     gridtolerance="10"
     guidetolerance="10"
     inkscape:pageopacity="0"
     inkscape:pageshadow="2"
     inkscape:window-width="1920"
     inkscape:window-height="1011"
     id="namedview6"
     showgrid="true"
     inkscape:zoom="27.812867"
     inkscape:cx="4.449159"
     inkscape:cy="14.146403"
     inkscape:window-x="0"
     inkscape:window-y="32"
     inkscape:window-maximized="1"
     inkscape:current-layer="svg4">
    <inkscape:grid
       type="xygrid"
       id="grid817" />
  </sodipodi:namedview>
  <path
     d="M 4,4 V 20 H 20 V 4 Z M 5,5 H 19 V 19 H 5 Z M 7,6 C 6.4477153,6 6,6.4477 6,7 6,7.5523 6.4477153,8 7,8 7.5522847,8 8,7.5523 8,7 8,6.4477 7.5522847,6 7,6 Z m 2,0 v 1 h 9 V 6 Z m 0,2 v 1 h 9 V 8 Z m -2,2 c -0.5522847,0 -1,0.4477 -1,1 0,0.5523 0.4477153,1 1,1 0.5522847,0 1,-0.4477 1,-1 0,-0.5523 -0.4477153,-1 -1,-1 z m 2,0 v 1 h 9 v -1 z m 0,2 v 1 h 9 v -1 z m -2,2 c -0.5522847,0 -1,0.4477 -1,1 0,0.5523 0.4477153,1 1,1 0.5522847,0 1,-0.4477 1,-1 0,-0.5523 -0.4477153,-1 -1,-1 z m 2,0 v 1 h 9 v -1 z m 0,2 v 1 h 9 v -1 z"
     id="path2"
     inkscape:connector-curvature="0"
     style="fill:#232629"
     sodipodi:nodetypes="ccccccccccsssssccccccccccsssssccccccccccssssscccccccccc" />
</svg>
